X: 24999
T: Maid On The Green, The
R: jig
M: 6/8
K: Gmajor
gfg e2d|Bee dBA|BGG dBG|BAG AB/c/d|
~g3 eGd|BeB dBA|BGG dBA|AGF GA/B/d:|
|:~g3 afd|~g3 a2a|bag agf|gef g2a|
bag agf|~g3 e2d|Bee dBA|AGF GA/B/d:|

